X:11
T:Polska efter Evert {\AA}hs
R:polska K1
A:\"Alvdalen, Dalarna
Z:hn-k1-11
M:3/4
K:Ddor
SAA/^c/ de =fa|ag ee/^f/ de|d^c Ac/B/ GA|B2 d/e/d/^c/ A2|
SAA/^c/ de =fa|ag ee/^f/ de|d^c Ac/B/ GB|1 Sd/e/d/^c/ A4:|2 Sd/e/d/^c/ A4|z2 A3G||
|:A2 cB GB|dc A/B/A/G/ E2|A2 cB GB|dc A2 E2|
A2 cB GB|dc A/B/A/G/ E2|A2 cB (3G^FG|1 SA2 A3A:|2 SA2 A4|z2 A4||

